svgs/regular/film-simple.svg

<svg xmlns="http://www.w3.org/2000/svg" viewBox="0 0 512 512"><!--! Font Awesome Pro 6.6.0 by @fontawesome - https://fontawesome.com License - https://fontawesome.com/license (Commercial License) Copyright 2024 Fonticons, Inc. --><path d="M160 432l192 0 0-112 0-128 0-112L160 80l0 112 0 128 0 112zM112 80L64 80c-8.8 0-16 7.2-16 16l0 72 64 0 0-88zm0 136l-64 0 0 80 64 0 0-80zm0 128l-64 0 0 72c0 8.8 7.2 16 16 16l48 0 0-88zM400 80l0 88 64 0 0-72c0-8.8-7.2-16-16-16l-48 0zm64 136l-64 0 0 80 64 0 0-80zm0 128l-64 0 0 88 48 0c8.8 0 16-7.2 16-16l0-72zM64 32l384 0c35.3 0 64 28.7 64 64l0 320c0 35.3-28.7 64-64 64L64 480c-35.3 0-64-28.7-64-64L0 96C0 60.7 28.7 32 64 32z"/></svg>

<svg xmlns="http://www.w3.org/2000/svg" viewBox="0 0 512 512"><!--! Font Awesome Pro 6.4.0 by @fontawesome - https://fontawesome.com License - https://fontawesome.com/license (Commercial License) Copyright 2023 Fonticons, Inc. --><path d="M160 432H352V320 192 80H160V192 320 432zM112 80H64c-8.8 0-16 7.2-16 16v72h64V80zm0 136H48v80h64V216zm0 128H48v72c0 8.8 7.2 16 16 16h48V344zM400 80v88h64V96c0-8.8-7.2-16-16-16H400zm64 136H400v80h64V216zm0 128H400v88h48c8.8 0 16-7.2 16-16V344zM64 32H448c35.3 0 64 28.7 64 64V416c0 35.3-28.7 64-64 64H64c-35.3 0-64-28.7-64-64V96C0 60.7 28.7 32 64 32z"/></svg>
